apps/www/public/images/career/icons/flexibility-light.svg

<svg width="49" height="49" viewBox="0 0 49 49" fill="none" xmlns="http://www.w3.org/2000/svg">
<rect x="0.615234" y="0.583008" width="48" height="48" rx="8" fill="#DDF3E4"/>
<path d="M16.0391 9.83691L18.3369 13.8168" stroke="#92CEAC" stroke-width="2" stroke-miterlimit="10" stroke-linejoin="bevel"/>
<path d="M31.1187 35.9563L33.4165 39.9362" stroke="#92CEAC" stroke-width="2" stroke-miterlimit="10" stroke-linejoin="bevel"/>
<path d="M39.8047 16.2019L35.8248 18.4997" stroke="#92CEAC" stroke-width="2" stroke-miterlimit="10" stroke-linejoin="bevel"/>
<path d="M13.6577 31.2781L9.67781 33.5759" stroke="#92CEAC" stroke-width="2" stroke-miterlimit="10" stroke-linejoin="bevel"/>
<path d="M9.48242 16.1675L13.4623 18.4653" stroke="#92CEAC" stroke-width="2.01025" stroke-miterlimit="10" stroke-linejoin="bevel"/>
<path d="M35.6021 31.2473L39.582 33.5451" stroke="#92CEAC" stroke-width="2.01025" stroke-miterlimit="10" stroke-linejoin="bevel"/>
<path d="M33.2212 9.80664L30.9234 13.7865" stroke="#92CEAC" stroke-width="2.01025" stroke-miterlimit="10" stroke-linejoin="bevel"/>
<path d="M18.1411 35.9265L15.8433 39.9064" stroke="#92CEAC" stroke-width="2.01025" stroke-miterlimit="10" stroke-linejoin="bevel"/>
<ellipse cx="24.7217" cy="24.6892" rx="17.5771" ry="17.5772" stroke="#299764" stroke-width="2" stroke-miterlimit="10" stroke-linejoin="bevel"/>
<path d="M24.7246 7.51074V12.1063" stroke="#299764" stroke-width="2" stroke-miterlimit="10" stroke-linejoin="bevel"/>
<path d="M24.7246 37.6707V42.2663" stroke="#299764" stroke-width="2" stroke-miterlimit="10" stroke-linejoin="bevel"/>
<path d="M42.1025 24.8887L37.5069 24.8887" stroke="#299764" stroke-width="2" stroke-miterlimit="10" stroke-linejoin="bevel"/>
<path d="M11.9419 24.8887L7.34629 24.8887" stroke="#299764" stroke-width="2" stroke-miterlimit="10" stroke-linejoin="bevel"/>
<path d="M24.6636 16.2019V22.4829M34.0286 34.2248L26.1525 26.3487" stroke="#299764" stroke-width="2" stroke-miterlimit="10" stroke-linejoin="bevel"/>
<ellipse rx="3.02133" ry="3.02133" transform="matrix(-1 0 0 1 24.7218 24.6893)" fill="#5BB98C" stroke="#299764" stroke-width="2" stroke-miterlimit="10" stroke-linejoin="bevel"/>
</svg>

<svg xmlns="http://www.w3.org/2000/svg" width="49" height="49" fill="none" viewBox="0 0 49 49"><rect width="48" height="48" x=".615" y=".583" fill="#ddf3e4" rx="8"/><path stroke="#92ceac" stroke-linejoin="bevel" stroke-miterlimit="10" stroke-width="2" d="m16.04 9.837 2.297 3.98M31.119 35.956l2.297 3.98M39.805 16.202l-3.98 2.298M13.658 31.278l-3.98 2.298"/><path stroke="#92ceac" stroke-linejoin="bevel" stroke-miterlimit="10" stroke-width="2.01" d="m9.482 16.168 3.98 2.297M35.602 31.247l3.98 2.298M33.221 9.807l-2.298 3.98M18.141 35.927l-2.298 3.98"/><circle cx="24.722" cy="24.689" r="17.577" stroke="#299764" stroke-linejoin="bevel" stroke-miterlimit="10" stroke-width="2"/><path stroke="#299764" stroke-linejoin="bevel" stroke-miterlimit="10" stroke-width="2" d="M24.725 7.51v4.596M24.725 37.67v4.596M42.103 24.889h-4.596M11.942 24.889H7.346M24.664 16.202v6.28m9.365 11.743-7.877-7.876"/><circle r="3.021" fill="#5bb98c" stroke="#299764" stroke-linejoin="bevel" stroke-miterlimit="10" stroke-width="2" transform="matrix(-1 0 0 1 24.722 24.69)"/></svg>
